X:12
T:Moreton Castle. PFD2.012
B:Playford’s Dancing Master, Vol 2, 1713-28
Z:vmp.Chris Partington 2015 www.village-music-project.org.uk
M:C|
L:1/8
Q:1/2=100
W:The first strain is to be play'd twice, and the first but once over.
W:The two 1st men go through the two 1st women, and cast into their places and turn,
W:The first couple lead through the second couple and cast up and turn
W:This to the frist strain play’d twice
W:The first couple half figure in the second couple, and cast off and turn
W:Then cast below the third couple and lead up to the top and cast off
W:This to the last strain play’d once
K:Bb
F2|B2AG FEDC|B,2B,2 B,2D2|B,CB,CB,2D2|C2C2 C2F2|
B2AG FEDC|DEF2GAB2|ABc2 F2A2|B6:|
d2|g2fe dcBA|G2G2 G2d2|g3a (gb)(ag)|^f6g2|
^f2g2 d2b2|a2b2 d2^f2|g3a a3g|g6d2|
g2fe dcBA|G2G2 G2AB|c2cd edcB|A6F2|
B2AG FEDC|DEF2GAB2|ABc2 F2A2|B6|]

